X:1
T:The New Song (Best)
T:John Robson Sweney
T:The New Song (Best)
T:Public Domain
T:Public Domain
T:Public Domain
C:John Robson Sweney
Z:Public Domain
%%score ( 1 2 ) ( 3 4 )
L:1/8
M:4/4
K:D
V:1 treble 
V:2 treble 
V:3 bass 
V:4 bass 
V:1
 [DF]>"^Modertato"[EG] | [FA]3 [^E^G] [FA]2 [Fd]>[Fd] | [Ec]2 ([Fd][Ge]) [Fd]2 [Fd][Ac] | %3
w: 1.~There are|songs of joy that I|loved to * sing, When my|
w: 2.~There are|strains of home that are|dear as * life, And I|
w: 3.~Can my|lips be mute, or my|heart be * sad, When the|
w: 4.~I shall|catch the gleam of its|jas- per * wall When I|
 [GB]2 ([GB]>[GB]) [FA]2 D[DE] | (F2 E)D [CA]2 [CA][EG] | [DF]2 [DF]>[DF] [DF]2 ([DE]D) | %6
w: heart was * blithe as a|in * spring, But the song|learned is~so full of cheer, *|
w: list to~them * oft ’mid the|of * strife; But I know|home that~is wond- rous fair, *|
w: gra- cious * Mas- ter hath|me * glad? When He points|ma- ny man- sions be, *|
w: come to~the * gloom of the|ven * fall, For I know|sha- dows, drear- y~and dim, *|
 [DA]2 (Bc) [Fd]2 ([Fd][Fd]) | [Fd]2 (AF) [FA]2 [FA][EG] | [DF]2 [CE]2 D2 || %9
w: dawn shines * out in *|dark- ness * drear. * *||
w: sing the * psalm they *|sing- ing * there. O the|new song! O|
w: sweet- ly * says, “There *|one for * thee”? * *||
w: path of * light that *|lead to * Him. * *||
"^Refrain" [DA]>"^Vivace"[DF] | (F2 F>F F2) [Fd]2 | (E2 E2 E2) [Ec]>[EA] | (G2 G>G G2) [Ge]2 | %13
w: ||||
w: new, new|song! * * * I|sing * * it now|the * * * ran-|
w: ||||
w: ||||
 (F2 F2 F2) [Fd][Ac] | (G2 G>G G2) [Gd]2 | (F2 F2 F2) [Fd][Fd] | (E2 E>E E2) [DB]2 | %17
w: ||||
w: throng: * * Pow- er|do- * * * min-|to * * Him that|reign, * * * Glo-|
w: ||||
w: ||||
 (z2 [CA]>[CA] [CA]2) z2 | [CA]2 [CG]2 [Gc]2 [Ge]2 | [Fd]4 [FA]2 [FA]2 | (A2 G2) [Gc]2 [Ge]2 | %21
w: ||||
w: |* praise to the|Lamb that was|slain. * * *|
w: ||||
w: ||||
 (F2 F>F F4) | [DB]4 [GB]2 [Gc]2 | [Fd]4 [DA]2 [EG]2 | [DF]4 [CE]3 [A,D] | [A,D]6 |] %26
w: |||||
w: |||||
w: |||||
w: |||||
V:2
 x2 | x8 | x8 | x6 D x | D3 D x4 | x7 D | x2 G2 x4 | x2 D2 x4 | x4 D2 || x2 | d6 x2 | c6 x2 | %12
w: |||bird|I have|That~the|the||||||
w: |||din|of a|And~I|are|new,|the||can|with|
w: |||made|where the|And|is||||||
w: |||e-|that the|Have~a|will||||||
 e6 x2 | d6 x2 | B6 x2 | A6 x2 | c6 x2 | [CA]6 x2 | x8 | x8 | E4 x4 | d6 x2 | x8 | x8 | x8 | x6 |] %26
w: ||||||||||||||
w: somed|and|ion|shall|ry|and|||||||||
w: ||||||||||||||
w: ||||||||||||||
V:3
 [D,A,]>[D,A,] | [D,D]3 [D,D] [D,D]2 [D,A,]>[D,A,] | A,2 [A,,A,]2 [D,A,]2 [D,A,][F,D] | %3
w: ~ ~|~ ~ ~ ~ ~|~ ~ ~ ~ ~|
 [G,D]2 [G,D]>[G,D] [D,D]2 [D,F,][D,G,] | (A,2 G,)[D,F,] [A,,E,]2 [A,,E,][A,,A,] | %5
w: ~ ~ ~ ~ ~ ~|~ * ~ ~ ~ ~|
 [D,A,]2 [D,A,]>[D,A,] [D,A,]2 ([D,G,][D,F,]) | [F,D]2 ([G,D][E,A,]) [D,A,]2 ([D,A,][D,A,]) | %7
w: ~ ~ ~ ~ ~ *|~ ~ * ~ ~ *|
 [D,A,]2 (F,A,) [D,D]2 [F,D][G,B,] | A,2 [A,,G,]2 [D,F,]2 || [D,F,]>[D,A,] | %10
w: ~ ~ * ~ ~ ~|~ ~ ~|the new,|
 [D,A,]2 [D,A,]>[D,A,] [D,A,]2 [D,A,]2 | A,2 [A,,A,]2 [A,,A,]2 [A,,A,]>[A,,C] | %12
w: ~ new song! ~ ~|~ ~ O, the new,|
 [A,,C]2 [A,C]>[A,C] [A,C]2 [A,C]2 | [D,D]2 [D,A,]2 [D,A,]2 [D,A,][F,D] | %14
w: ~ new song! ~ ~|~ I can sing ~|
 [G,D]2 [G,D]>[G,D] [G,D]2 [G,,B,]2 | [D,A,]2 [D,A,]2 [D,A,]2 [D,A,][D,A,] | %16
w: ~ just now ~ ~|ran- somed, the ran- somed|
 [E,A,]2 [E,A,]>[E,A,] [E,A,]2 [E,^G,]2 | z2 [A,,A,]>[A,,A,] [A,,A,]2 z2 | %18
w: throng: ~ ~ ~ ~|~ ~ ~|
 [A,,A,]2 [A,,A,]2 [A,,A,]2 [C,A,]2 | [D,A,]4 [D,D]2 [D,D]2 | [A,C]4 [A,,A,]2 [C,A,]2 | %21
w: * ~ ~ ~|~ ~ ~|that shall reign:|
 [D,A,]2 [D,A,]>[D,A,] (A,2 =C2) | [G,B,]4 [G,D]2 [E,A,]2 | [D,A,]4 [F,A,]2 [G,B,]2 | %24
w: |||
 A,4 [A,,G,]3 [D,F,] | [D,F,]6 |] %26
w: ||
V:4
 x2 | x8 | A,2 x6 | x8 | D,3 x5 | x8 | x8 | x2 D,2 x4 | A,2 x4 || x2 | x8 | A,2 x6 | x8 | x8 | x8 | %15
w: ||~||~|||~|O,|||~||||
 x8 | x8 | [A,,A,]6 x2 | x8 | x8 | x8 | x4 D,4 | x8 | x8 | A,4 x4 | x6 |] %26
w: ||~|||||||||

